X: 2
T: The Humours Of Bandon
R: jig
M: 6/8
L: 1/8
K: Gmaj
|: D |DGG GFG | ABG FGA | BAG GFG | Ade f2 e |
d2 e c2 d | ABG FGA | BAG FEF | G3 G2 :|
|: d |dgg gfg | a-a/b/a/g/ f2 a | g-g/a/g/f/ f d2 e | =f-f/g/e/d/ c2 e |
d-d/e/d/c/ A2 B | c-c/d/c/B/ G2 B | A-A/B/A/G/ F2 A | GFD EDC |
DGG GFG | ABG FGA | BAG GFG | Ade f2 e |
d2 e c2 d | ABG FGA | BAG FEF | G3 G2 :|


Tune 2193	Setting 2193

